X: 1
T: I'm Over Young to Marry Yet -- Reel
R:reel
B:Ryan's Mammoth Collection
Z:Contributed by Ray Davies, ray:davies99.freeserve.co.uk
M:2/4
L:1/16
K:G
ue [| !segno!dBG(B {d}c)Bce | dBGB .c.A.A(e | d)B.G(.B {d}.c).B.c(d | e)(fg)(fa)(gf).e |\
dBG(B {d}c)Bce | dBGB .c.A.A(^c | d)(BG)(.B {d}c)Bcd | efge (dB)(Bd) :|\
{a}.g.f.g(e a)(^ga)(f | =g)(fg).e .d.B.B(d | g)(fg).e abaf | gedc (BG)(Gf) | \
gfge a^gaf | =gfge (dB)(BA) | .G.A.B(^c d)(ef)(g | a).^g.a.f .=g{a}(g/f/g).e !segno!|]


